svg/300/outlined/description-fill.svg

<svg xmlns="http://www.w3.org/2000/svg" width="48" height="48" viewBox="0 -960 960 960"><path d="M329.385-257.308h301.23v-45.384h-301.23v45.384Zm0-167.308h301.23v-45.383h-301.23v45.383Zm-91.691 324.615q-23.529 0-40.611-17.082-17.082-17.082-17.082-40.611v-644.612q0-23.529 17.082-40.611 17.082-17.082 40.611-17.082h347.537l194.768 194.768v507.537q0 23.529-17.082 40.611-17.082 17.082-40.611 17.082H237.694ZM562.539-644.77h172.076L562.539-814.615v169.845Z"/></svg>

<svg xmlns="http://www.w3.org/2000/svg" width="48" height="48" viewBox="0 -960 960 960"><path d="M329.39-257.31h301.22v-45.38H329.39v45.38Zm0-167.31h301.22V-470H329.39v45.38ZM237.69-100q-23.53 0-40.61-17.08T180-157.69v-644.62q0-23.53 17.08-40.61T237.69-860h347.54L780-665.23v507.54q0 23.53-17.08 40.61T722.31-100H237.69Zm324.85-544.77h172.07L562.54-814.61v169.84Z"/></svg>
